images/50840590.svg

<?xml version="1.0" encoding="UTF-8"?>
<svg xmlns="http://www.w3.org/2000/svg" xmlns:xlink="http://www.w3.org/1999/xlink" width="300pt" height="300pt" viewBox="0 0 300 300" version="1.1">
<defs>
<g>
<symbol overflow="visible" id="glyph0-0">
<path style="stroke:none;" d="M 0.546875 1.9375 L 0.546875 -7.75 L 6.046875 -7.75 L 6.046875 1.9375 Z M 1.171875 1.328125 L 5.4375 1.328125 L 5.4375 -7.140625 L 1.171875 -7.140625 Z M 1.171875 1.328125 "/>
</symbol>
<symbol overflow="visible" id="glyph0-1">
<path style="stroke:none;" d="M 4.328125 -7.28125 C 3.546875 -7.28125 2.921875 -6.984375 2.453125 -6.390625 C 1.992188 -5.804688 1.765625 -5.007812 1.765625 -4 C 1.765625 -2.988281 1.992188 -2.1875 2.453125 -1.59375 C 2.921875 -1.007812 3.546875 -0.71875 4.328125 -0.71875 C 5.117188 -0.71875 5.742188 -1.007812 6.203125 -1.59375 C 6.660156 -2.1875 6.890625 -2.988281 6.890625 -4 C 6.890625 -5.007812 6.660156 -5.804688 6.203125 -6.390625 C 5.742188 -6.984375 5.117188 -7.28125 4.328125 -7.28125 Z M 4.328125 -8.171875 C 5.453125 -8.171875 6.351562 -7.789062 7.03125 -7.03125 C 7.707031 -6.28125 8.046875 -5.269531 8.046875 -4 C 8.046875 -2.738281 7.707031 -1.726562 7.03125 -0.96875 C 6.351562 -0.21875 5.453125 0.15625 4.328125 0.15625 C 3.203125 0.15625 2.300781 -0.21875 1.625 -0.96875 C 0.957031 -1.71875 0.625 -2.726562 0.625 -4 C 0.625 -5.269531 0.957031 -6.28125 1.625 -7.03125 C 2.300781 -7.789062 3.203125 -8.171875 4.328125 -8.171875 Z M 4.328125 -8.171875 "/>
</symbol>
<symbol overflow="visible" id="glyph0-2">
<path style="stroke:none;" d="M 1.078125 -8.015625 L 2.546875 -8.015625 L 6.09375 -1.3125 L 6.09375 -8.015625 L 7.15625 -8.015625 L 7.15625 0 L 5.6875 0 L 2.125 -6.703125 L 2.125 0 L 1.078125 0 Z M 1.078125 -8.015625 "/>
</symbol>
<symbol overflow="visible" id="glyph0-3">
<path style="stroke:none;" d="M 1.078125 -8.015625 L 2.171875 -8.015625 L 2.171875 -4.734375 L 6.109375 -4.734375 L 6.109375 -8.015625 L 7.1875 -8.015625 L 7.1875 0 L 6.109375 0 L 6.109375 -3.8125 L 2.171875 -3.8125 L 2.171875 0 L 1.078125 0 Z M 1.078125 -8.015625 "/>
</symbol>
</g>
</defs>
<g id="surface11693">
<rect x="0" y="0" width="300" height="300" style="fill:rgb(100%,100%,100%);fill-opacity:1;stroke:none;"/>
<path style="fill:none;stroke-width:1.2;stroke-linecap:butt;stroke-linejoin:miter;stroke:rgb(100%,0%,0%);stroke-opacity:1;stroke-miterlimit:10;" d="M 33.871094 129.414062 L 45.621094 135.277344 "/>
<path style="fill:none;stroke-width:1.2;stroke-linecap:butt;stroke-linejoin:miter;stroke:rgb(0%,0%,0%);stroke-opacity:1;stroke-miterlimit:10;" d="M 45.621094 135.277344 L 57.367188 141.136719 "/>
<path style="fill:none;stroke-width:1.2;stroke-linecap:butt;stroke-linejoin:miter;stroke:rgb(100%,0%,0%);stroke-opacity:1;stroke-miterlimit:10;" d="M 36.628906 123.886719 L 48.378906 129.746094 "/>
<path style="fill:none;stroke-width:1.2;stroke-linecap:butt;stroke-linejoin:miter;stroke:rgb(0%,0%,0%);stroke-opacity:1;stroke-miterlimit:10;" d="M 48.378906 129.746094 L 60.128906 135.609375 "/>
<path style=" stroke:none;fill-rule:nonzero;fill:rgb(100%,100%,100%);fill-opacity:1;" d="M 26.25 120.152344 L 35.25 120.152344 L 35.25 133.152344 L 26.25 133.152344 Z M 26.25 120.152344 "/>
<g style="fill:rgb(100%,0%,0%);fill-opacity:1;">
  <use xlink:href="#glyph0-1" x="26.25" y="130.053711"/>
</g>
<path style="fill:none;stroke-width:1.2;stroke-linecap:butt;stroke-linejoin:miter;stroke:rgb(0%,0%,0%);stroke-opacity:1;stroke-miterlimit:10;" d="M 58.746094 138.371094 L 60.910156 151.324219 "/>
<path style="fill:none;stroke-width:1.2;stroke-linecap:butt;stroke-linejoin:miter;stroke:rgb(0%,0%,100%);stroke-opacity:1;stroke-miterlimit:10;" d="M 60.910156 151.324219 L 63.078125 164.273438 "/>
<path style="fill:none;stroke-width:1.2;stroke-linecap:butt;stroke-linejoin:miter;stroke:rgb(0%,0%,0%);stroke-opacity:1;stroke-miterlimit:10;" d="M 82.042969 126.253906 L 58.746094 138.371094 "/>
<path style="fill:none;stroke-width:1.2;stroke-linecap:butt;stroke-linejoin:miter;stroke:rgb(0%,0%,100%);stroke-opacity:1;stroke-miterlimit:10;" d="M 63.078125 164.273438 L 76.0625 166.214844 "/>
<path style="fill:none;stroke-width:1.2;stroke-linecap:butt;stroke-linejoin:miter;stroke:rgb(0%,0%,0%);stroke-opacity:1;stroke-miterlimit:10;" d="M 76.0625 166.214844 L 89.046875 168.160156 "/>
<path style="fill:none;stroke-width:1.2;stroke-linecap:butt;stroke-linejoin:miter;stroke:rgb(0%,0%,0%);stroke-opacity:1;stroke-miterlimit:10;" d="M 51.355469 187.769531 L 57.214844 176.023438 "/>
<path style="fill:none;stroke-width:1.2;stroke-linecap:butt;stroke-linejoin:miter;stroke:rgb(0%,0%,100%);stroke-opacity:1;stroke-miterlimit:10;" d="M 57.214844 176.023438 L 63.078125 164.273438 "/>
<path style=" stroke:none;fill-rule:nonzero;fill:rgb(100%,100%,100%);fill-opacity:1;" d="M 59.078125 157.773438 L 67.078125 157.773438 L 67.078125 170.773438 L 59.078125 170.773438 Z M 59.078125 157.773438 "/>
<g style="fill:rgb(0%,0%,100%);fill-opacity:1;">
  <use xlink:href="#glyph0-2" x="59.078125" y="167.674805"/>
</g>
<path style=" stroke:none;fill-rule:nonzero;fill:rgb(0%,0%,0%);fill-opacity:1;" d="M 89.046875 168.160156 L 104.914062 146.730469 L 96.621094 142.59375 Z M 89.046875 168.160156 "/>
<path style="fill:none;stroke-width:1.2;stroke-linecap:butt;stroke-linejoin:miter;stroke:rgb(0%,0%,0%);stroke-opacity:1;stroke-miterlimit:10;" d="M 89.046875 168.160156 L 93.375 194.0625 "/>
<path style="fill:none;stroke-width:1.2;stroke-linecap:butt;stroke-linejoin:miter;stroke:rgb(0%,0%,0%);stroke-opacity:1;stroke-miterlimit:10;" d="M 100.769531 144.664062 L 82.042969 126.253906 "/>
<path style="fill:none;stroke-width:1.2;stroke-linecap:butt;stroke-linejoin:miter;stroke:rgb(0%,0%,0%);stroke-opacity:1;stroke-miterlimit:10;" d="M 103.226562 138.414062 L 88.246094 123.6875 "/>
<path style="fill:none;stroke-width:1.2;stroke-linecap:butt;stroke-linejoin:miter;stroke:rgb(0%,0%,0%);stroke-opacity:1;stroke-miterlimit:10;" d="M 126.074219 137.652344 L 100.769531 144.664062 "/>
<path style="fill:none;stroke-width:1.2;stroke-linecap:butt;stroke-linejoin:miter;stroke:rgb(0%,0%,0%);stroke-opacity:1;stroke-miterlimit:10;" d="M 82.042969 126.253906 L 88.625 100.832031 "/>
<path style="fill:none;stroke-width:1.2;stroke-linecap:butt;stroke-linejoin:miter;stroke:rgb(0%,0%,0%);stroke-opacity:1;stroke-miterlimit:10;" d="M 88.625 100.832031 L 113.929688 93.820312 "/>
<path style="fill:none;stroke-width:1.2;stroke-linecap:butt;stroke-linejoin:miter;stroke:rgb(0%,0%,0%);stroke-opacity:1;stroke-miterlimit:10;" d="M 92.804688 106.085938 L 113.050781 100.476562 "/>
<path style="fill:none;stroke-width:1.2;stroke-linecap:butt;stroke-linejoin:miter;stroke:rgb(0%,0%,0%);stroke-opacity:1;stroke-miterlimit:10;" d="M 113.929688 93.820312 L 132.65625 112.230469 "/>
<path style="fill:none;stroke-width:1.2;stroke-linecap:butt;stroke-linejoin:miter;stroke:rgb(0%,0%,0%);stroke-opacity:1;stroke-miterlimit:10;" d="M 132.65625 112.230469 L 126.074219 137.652344 "/>
<path style="fill:none;stroke-width:1.2;stroke-linecap:butt;stroke-linejoin:miter;stroke:rgb(0%,0%,0%);stroke-opacity:1;stroke-miterlimit:10;" d="M 126.015625 113.222656 L 120.75 133.558594 "/>
<path style="fill:none;stroke-width:1.2;stroke-linecap:butt;stroke-linejoin:miter;stroke:rgb(0%,0%,0%);stroke-opacity:1;stroke-miterlimit:10;" d="M 126.074219 137.652344 L 135.4375 146.855469 "/>
<path style="fill:none;stroke-width:1.2;stroke-linecap:butt;stroke-linejoin:miter;stroke:rgb(0%,0%,100%);stroke-opacity:1;stroke-miterlimit:10;" d="M 135.4375 146.855469 L 144.800781 156.058594 "/>
<path style="fill:none;stroke-width:1.2;stroke-linecap:butt;stroke-linejoin:miter;stroke:rgb(0%,0%,100%);stroke-opacity:1;stroke-miterlimit:10;" d="M 144.800781 156.058594 L 157.453125 152.554688 "/>
<path style="fill:none;stroke-width:1.2;stroke-linecap:butt;stroke-linejoin:miter;stroke:rgb(0%,0%,0%);stroke-opacity:1;stroke-miterlimit:10;" d="M 157.453125 152.554688 L 170.105469 149.046875 "/>
<path style=" stroke:none;fill-rule:nonzero;fill:rgb(100%,100%,100%);fill-opacity:1;" d="M 136.800781 149.558594 L 153.800781 149.558594 L 153.800781 162.558594 L 136.800781 162.558594 Z M 136.800781 149.558594 "/>
<g style="fill:rgb(0%,0%,100%);fill-opacity:1;">
  <use xlink:href="#glyph0-2" x="136.800781" y="159.459961"/>
  <use xlink:href="#glyph0-3" x="144.78418" y="159.459961"/>
</g>
<path style="fill:none;stroke-width:1.2;stroke-linecap:butt;stroke-linejoin:miter;stroke:rgb(0%,0%,0%);stroke-opacity:1;stroke-miterlimit:10;" d="M 173.097656 149.824219 L 176.386719 137.113281 "/>
<path style="fill:none;stroke-width:1.2;stroke-linecap:butt;stroke-linejoin:miter;stroke:rgb(100%,0%,0%);stroke-opacity:1;stroke-miterlimit:10;" d="M 176.386719 137.113281 L 179.675781 124.402344 "/>
<path style="fill:none;stroke-width:1.2;stroke-linecap:butt;stroke-linejoin:miter;stroke:rgb(0%,0%,0%);stroke-opacity:1;stroke-miterlimit:10;" d="M 167.117188 148.273438 L 170.40625 135.5625 "/>
<path style="fill:none;stroke-width:1.2;stroke-linecap:butt;stroke-linejoin:miter;stroke:rgb(100%,0%,0%);stroke-opacity:1;stroke-miterlimit:10;" d="M 170.40625 135.5625 L 173.695312 122.851562 "/>
<path style="fill:none;stroke-width:1.2;stroke-linecap:butt;stroke-linejoin:miter;stroke:rgb(0%,0%,0%);stroke-opacity:1;stroke-miterlimit:10;" d="M 170.105469 149.046875 L 179.46875 158.253906 "/>
<path style="fill:none;stroke-width:1.2;stroke-linecap:butt;stroke-linejoin:miter;stroke:rgb(0%,0%,100%);stroke-opacity:1;stroke-miterlimit:10;" d="M 179.46875 158.253906 L 188.832031 167.457031 "/>
<path style=" stroke:none;fill-rule:nonzero;fill:rgb(100%,100%,100%);fill-opacity:1;" d="M 172.6875 117.125 L 181.6875 117.125 L 181.6875 130.125 L 172.6875 130.125 Z M 172.6875 117.125 "/>
<g style="fill:rgb(100%,0%,0%);fill-opacity:1;">
  <use xlink:href="#glyph0-1" x="172.6875" y="127.026367"/>
</g>
<path style="fill:none;stroke-width:1.2;stroke-linecap:butt;stroke-linejoin:miter;stroke:rgb(0%,0%,100%);stroke-opacity:1;stroke-miterlimit:10;" d="M 188.832031 167.457031 L 201.484375 163.953125 "/>
<path style="fill:none;stroke-width:1.2;stroke-linecap:butt;stroke-linejoin:miter;stroke:rgb(0%,0%,0%);stroke-opacity:1;stroke-miterlimit:10;" d="M 201.484375 163.953125 L 214.136719 160.445312 "/>
<path style=" stroke:none;fill-rule:nonzero;fill:rgb(100%,100%,100%);fill-opacity:1;" d="M 180.832031 160.957031 L 197.832031 160.957031 L 197.832031 173.957031 L 180.832031 173.957031 Z M 180.832031 160.957031 "/>
<g style="fill:rgb(0%,0%,100%);fill-opacity:1;">
  <use xlink:href="#glyph0-2" x="180.832031" y="170.858398"/>
  <use xlink:href="#glyph0-3" x="188.81543" y="170.858398"/>
</g>
<path style="fill:none;stroke-width:1.2;stroke-linecap:butt;stroke-linejoin:miter;stroke:rgb(0%,0%,0%);stroke-opacity:1;stroke-miterlimit:10;" d="M 214.136719 160.445312 L 223.5 169.652344 "/>
<path style="fill:none;stroke-width:1.2;stroke-linecap:butt;stroke-linejoin:miter;stroke:rgb(0%,0%,100%);stroke-opacity:1;stroke-miterlimit:10;" d="M 223.5 169.652344 L 232.863281 178.855469 "/>
<path style="fill:none;stroke-width:1.2;stroke-linecap:butt;stroke-linejoin:miter;stroke:rgb(0%,0%,0%);stroke-opacity:1;stroke-miterlimit:10;" d="M 220.34375 157.882812 L 227.832031 165.246094 "/>
<path style="fill:none;stroke-width:1.2;stroke-linecap:butt;stroke-linejoin:miter;stroke:rgb(0%,0%,100%);stroke-opacity:1;stroke-miterlimit:10;" d="M 227.832031 165.246094 L 235.324219 172.609375 "/>
<path style="fill:none;stroke-width:1.2;stroke-linecap:butt;stroke-linejoin:miter;stroke:rgb(0%,0%,0%);stroke-opacity:1;stroke-miterlimit:10;" d="M 220.71875 135.023438 L 214.136719 160.445312 "/>
<path style="fill:none;stroke-width:1.2;stroke-linecap:butt;stroke-linejoin:miter;stroke:rgb(0%,0%,100%);stroke-opacity:1;stroke-miterlimit:10;" d="M 232.863281 178.855469 L 245.515625 175.351562 "/>
<path style="fill:none;stroke-width:1.2;stroke-linecap:butt;stroke-linejoin:miter;stroke:rgb(0%,0%,0%);stroke-opacity:1;stroke-miterlimit:10;" d="M 245.515625 175.351562 L 258.167969 171.84375 "/>
<path style=" stroke:none;fill-rule:nonzero;fill:rgb(100%,100%,100%);fill-opacity:1;" d="M 228.863281 172.355469 L 236.863281 172.355469 L 236.863281 185.355469 L 228.863281 185.355469 Z M 228.863281 172.355469 "/>
<g style="fill:rgb(0%,0%,100%);fill-opacity:1;">
  <use xlink:href="#glyph0-2" x="228.863281" y="182.256836"/>
</g>
<path style="fill:none;stroke-width:1.2;stroke-linecap:butt;stroke-linejoin:miter;stroke:rgb(0%,0%,0%);stroke-opacity:1;stroke-miterlimit:10;" d="M 258.167969 171.84375 L 264.75 146.421875 "/>
<path style="fill:none;stroke-width:1.2;stroke-linecap:butt;stroke-linejoin:miter;stroke:rgb(0%,0%,0%);stroke-opacity:1;stroke-miterlimit:10;" d="M 252.847656 167.753906 L 258.109375 147.417969 "/>
<path style="fill:none;stroke-width:1.2;stroke-linecap:butt;stroke-linejoin:miter;stroke:rgb(0%,0%,0%);stroke-opacity:1;stroke-miterlimit:10;" d="M 264.75 146.421875 L 246.023438 128.011719 "/>
<path style="fill:none;stroke-width:1.2;stroke-linecap:butt;stroke-linejoin:miter;stroke:rgb(0%,0%,0%);stroke-opacity:1;stroke-miterlimit:10;" d="M 246.023438 128.011719 L 220.71875 135.023438 "/>
<path style="fill:none;stroke-width:1.2;stroke-linecap:butt;stroke-linejoin:miter;stroke:rgb(0%,0%,0%);stroke-opacity:1;stroke-miterlimit:10;" d="M 245.144531 134.667969 L 224.898438 140.277344 "/>
<path style="fill:none;stroke-width:1.2;stroke-linecap:butt;stroke-linejoin:miter;stroke:rgb(0%,0%,0%);stroke-opacity:1;stroke-miterlimit:10;" d="M 93.375 194.0625 L 70.078125 206.179688 "/>
<path style="fill:none;stroke-width:1.2;stroke-linecap:butt;stroke-linejoin:miter;stroke:rgb(0%,0%,0%);stroke-opacity:1;stroke-miterlimit:10;" d="M 70.078125 206.179688 L 51.355469 187.769531 "/>
</g>
</svg>

<svg xmlns="http://www.w3.org/2000/svg" xmlns:xlink="http://www.w3.org/1999/xlink" width="300pt" height="300pt" viewBox="0 0 300 300"><defs><symbol overflow="visible"><path d="M.547 1.938V-7.75h5.5v9.688zm.625-.61h4.266v-8.47H1.171zm0 0"/></symbol><symbol overflow="visible" id="a"><path d="M4.328-7.28c-.78 0-1.406.296-1.875.89-.46.585-.687 1.382-.687 2.39 0 1.012.226 1.813.687 2.406.47.586 1.094.875 1.875.875.79 0 1.414-.288 1.875-.874.457-.593.688-1.394.688-2.406 0-1.008-.23-1.805-.687-2.39-.46-.594-1.086-.89-1.875-.89zm0-.892c1.125 0 2.024.383 2.703 1.14C7.708-6.28 8.048-5.27 8.048-4c0 1.262-.34 2.273-1.016 3.03C6.353-.22 5.454.157 4.33.157S2.3-.22 1.625-.97c-.668-.75-1-1.757-1-3.03 0-1.27.332-2.28 1-3.03.676-.76 1.578-1.142 2.703-1.142zm0 0"/></symbol><symbol overflow="visible" id="b"><path d="M1.078-8.016h1.47l3.546 6.704v-6.704h1.062V0H5.688L2.124-6.703V0H1.078zm0 0"/></symbol><symbol overflow="visible" id="c"><path d="M1.078-8.016h1.094v3.282H6.11v-3.282h1.077V0H6.11v-3.813H2.17V0H1.078zm0 0"/></symbol></defs><g><path fill="#fff" d="M0 0h300v300H0z"/><path d="M33.87 129.414l11.75 5.863" stroke-width="1.2" stroke="#f00" stroke-miterlimit="10" fill="none"/><path d="M45.62 135.277l11.747 5.86" stroke-width="1.2" stroke="#000" stroke-miterlimit="10" fill="none"/><path d="M36.63 123.887l11.75 5.86" stroke-width="1.2" stroke="#f00" stroke-miterlimit="10" fill="none"/><path d="M48.38 129.746l11.75 5.863" stroke-width="1.2" stroke="#000" stroke-miterlimit="10" fill="none"/><path d="M26.25 120.152h9v13h-9zm0 0" fill="#fff"/><use xlink:href="#a" x="26.25" y="130.054" fill="#f00"/><path d="M58.746 138.37l2.164 12.954" stroke-width="1.2" stroke="#000" stroke-miterlimit="10" fill="none"/><path d="M60.91 151.324l2.168 12.95" stroke-width="1.2" stroke="#00f" stroke-miterlimit="10" fill="none"/><path d="M82.043 126.254L58.746 138.37" stroke-width="1.2" stroke="#000" stroke-miterlimit="10" fill="none"/><path d="M63.078 164.273l12.984 1.942" stroke-width="1.2" stroke="#00f" stroke-miterlimit="10" fill="none"/><path d="M76.063 166.215l12.984 1.945M51.355 187.77l5.86-11.747" stroke-width="1.2" stroke="#000" stroke-miterlimit="10" fill="none"/><path d="M57.215 176.023l5.863-11.75" stroke-width="1.2" stroke="#00f" stroke-miterlimit="10" fill="none"/><path d="M59.078 157.773h8v13h-8zm0 0" fill="#fff"/><use xlink:href="#b" x="59.078" y="167.675" fill="#00f"/><path d="M89.047 168.16l15.867-21.43-8.293-4.136zm0 0"/><path d="M89.047 168.16l4.328 25.903M100.77 144.664l-18.727-18.41M103.227 138.414l-14.98-14.726M126.074 137.652l-25.304 7.012M82.043 126.254l6.582-25.422M88.625 100.832l25.305-7.012M92.805 106.086l20.246-5.61M113.93 93.82l18.726 18.41M132.656 112.23l-6.582 25.422M126.016 113.223l-5.266 20.336M126.074 137.652l9.364 9.203" stroke-width="1.2" stroke="#000" stroke-miterlimit="10" fill="none"/><path d="M135.438 146.855l9.363 9.204M144.8 156.06l12.653-3.505" stroke-width="1.2" stroke="#00f" stroke-miterlimit="10" fill="none"/><path d="M157.453 152.555l12.652-3.508" stroke-width="1.2" stroke="#000" stroke-miterlimit="10" fill="none"/><path d="M136.8 149.56h17v13h-17zm0 0" fill="#fff"/><g fill="#00f"><use xlink:href="#b" x="136.801" y="159.46"/><use xlink:href="#c" x="144.784" y="159.46"/></g><path d="M173.098 149.824l3.29-12.71" stroke-width="1.2" stroke="#000" stroke-miterlimit="10" fill="none"/><path d="M176.387 137.113l3.29-12.71" stroke-width="1.2" stroke="#f00" stroke-miterlimit="10" fill="none"/><path d="M167.117 148.273l3.29-12.71" stroke-width="1.2" stroke="#000" stroke-miterlimit="10" fill="none"/><path d="M170.406 135.563l3.29-12.71" stroke-width="1.2" stroke="#f00" stroke-miterlimit="10" fill="none"/><path d="M170.105 149.047l9.364 9.207" stroke-width="1.2" stroke="#000" stroke-miterlimit="10" fill="none"/><path d="M179.47 158.254l9.362 9.203" stroke-width="1.2" stroke="#00f" stroke-miterlimit="10" fill="none"/><path d="M172.688 117.125h9v13h-9zm0 0" fill="#fff"/><use xlink:href="#a" x="172.688" y="127.026" fill="#f00"/><path d="M188.832 167.457l12.652-3.504" stroke-width="1.2" stroke="#00f" stroke-miterlimit="10" fill="none"/><path d="M201.484 163.953l12.653-3.508" stroke-width="1.2" stroke="#000" stroke-miterlimit="10" fill="none"/><path d="M180.832 160.957h17v13h-17zm0 0" fill="#fff"/><g fill="#00f"><use xlink:href="#b" x="180.832" y="170.858"/><use xlink:href="#c" x="188.815" y="170.858"/></g><path d="M214.137 160.445l9.363 9.207" stroke-width="1.2" stroke="#000" stroke-miterlimit="10" fill="none"/><path d="M223.5 169.652l9.363 9.203" stroke-width="1.2" stroke="#00f" stroke-miterlimit="10" fill="none"/><path d="M220.344 157.883l7.488 7.363" stroke-width="1.2" stroke="#000" stroke-miterlimit="10" fill="none"/><path d="M227.832 165.246l7.492 7.363" stroke-width="1.2" stroke="#00f" stroke-miterlimit="10" fill="none"/><path d="M220.72 135.023l-6.583 25.422" stroke-width="1.2" stroke="#000" stroke-miterlimit="10" fill="none"/><path d="M232.863 178.855l12.653-3.503" stroke-width="1.2" stroke="#00f" stroke-miterlimit="10" fill="none"/><path d="M245.516 175.352l12.652-3.508" stroke-width="1.2" stroke="#000" stroke-miterlimit="10" fill="none"/><path d="M228.863 172.355h8v13h-8zm0 0" fill="#fff"/><use xlink:href="#b" x="228.863" y="182.257" fill="#00f"/><path d="M258.168 171.844l6.582-25.422M252.848 167.754l5.26-20.336M264.75 146.422l-18.727-18.41M246.023 128.012l-25.304 7.01M245.145 134.668l-20.247 5.61M93.375 194.063L70.078 206.18M70.078 206.18l-18.723-18.41" stroke-width="1.2" stroke="#000" stroke-miterlimit="10" fill="none"/></g></svg>
